fs/animal_cat_24_regular.svg

<svg viewBox="0 0 24 24" fill="none" xmlns="http://www.w3.org/2000/svg" height="1em" width="1em">
  <path d="M15.4925 3.50673C14.652 3.58251 13.9933 4.28929 13.9933 5.15V10C13.9933 10.4142 13.6577 10.75 13.2437 10.75C11.8002 10.75 10.7863 11.3378 10.0365 12.238C9.26389 13.1656 8.7607 14.444 8.44554 15.7954C8.13254 17.1376 8.01871 18.4912 7.98453 19.5172C7.97182 19.8987 7.9702 20.2324 7.97313 20.5H14.9928V19.75C14.9928 18.5074 13.986 17.5 12.744 17.5H11.4947C11.0807 17.5 10.7451 17.1642 10.7451 16.75C10.7451 16.3358 11.0807 16 11.4947 16H12.744C14.8139 16 16.4919 17.6789 16.4919 19.75V20.5H17.2415C17.6555 20.5 17.9911 20.1642 17.9911 19.75V9.75C17.9911 9.33579 18.3267 9 18.7407 9H19.2472C20.2264 9 20.8249 7.92404 20.309 7.09132L19.6893 6.09132C19.4615 5.72367 19.0599 5.5 18.6275 5.5H16.2421C15.8281 5.5 15.4925 5.16421 15.4925 4.75V3.50673ZM6.47388 20.5C6.47098 20.2156 6.47293 19.8655 6.4862 19.4672C6.52229 18.3838 6.64271 16.9249 6.98559 15.4546C7.32631 13.9935 7.90065 12.4594 8.88484 11.2777C9.75681 10.2307 10.9399 9.47669 12.4942 9.29318V5.15C12.4942 3.4103 13.9037 2 15.6424 2C16.3876 2 16.9916 2.60442 16.9916 3.35V4H18.6275C19.5787 4 20.4622 4.49207 20.9634 5.30092L21.5831 6.30092C22.6749 8.06291 21.4985 10.32 19.4903 10.4898V19.75C19.4903 20.9926 18.4835 22 17.2415 22H7.24708L7.24537 22H5.79625C3.69964 22 2 20.2994 2 18.2016C2 17.2395 2.36489 16.3133 3.02098 15.6099L4.15612 14.393C4.92005 13.5741 5.17521 12.4027 4.82117 11.3399C4.67114 10.8896 4.41837 10.4804 4.08288 10.1447L2.96914 9.03042C2.67641 8.73753 2.67639 8.26266 2.96912 7.96976C3.26184 7.67686 3.73645 7.67685 4.02919 7.96974L5.14293 9.08405C5.643 9.58438 6.01977 10.1943 6.2434 10.8656C6.77114 12.4497 6.3908 14.1958 5.25209 15.4165L4.11695 16.6334C3.71996 17.059 3.49916 17.6195 3.49916 18.2016C3.49916 19.471 4.52761 20.5 5.79625 20.5H6.47388Z" fill="#212121"/>
</svg>

<svg viewBox="0 0 24 24" fill="none" xmlns="http://www.w3.org/2000/svg" height="1em" width="1em">
  <path d="M15.492 3.507a1.65 1.65 0 0 0-1.499 1.643V10a.75.75 0 0 1-.75.75c-1.443 0-2.457.588-3.207 1.488-.772.928-1.275 2.206-1.59 3.557-.313 1.343-.427 2.696-.461 3.722a21.89 21.89 0 0 0-.012.983h7.02v-.75a2.25 2.25 0 0 0-2.249-2.25h-1.25a.75.75 0 0 1 0-1.5h1.25a3.749 3.749 0 0 1 3.748 3.75v.75h.75a.75.75 0 0 0 .75-.75v-10A.75.75 0 0 1 18.74 9h.506a1.25 1.25 0 0 0 1.062-1.909l-.62-1a1.25 1.25 0 0 0-1.061-.591h-2.386a.75.75 0 0 1-.75-.75V3.507ZM6.474 20.5c-.003-.284-.001-.634.012-1.033.036-1.083.157-2.542.5-4.012.34-1.462.915-2.996 1.899-4.177.872-1.047 2.055-1.801 3.61-1.985V5.15A3.15 3.15 0 0 1 15.641 2c.746 0 1.35.604 1.35 1.35V4h1.636c.95 0 1.834.492 2.335 1.3l.62 1c1.092 1.763-.084 4.02-2.093 4.19v9.26A2.25 2.25 0 0 1 17.242 22H5.795a3.797 3.797 0 0 1-2.775-6.39l1.135-1.217a3.059 3.059 0 0 0-.073-4.248L2.969 9.03a.75.75 0 0 1 1.06-1.06l1.114 1.114a4.558 4.558 0 0 1 .11 6.332l-1.136 1.217a2.3 2.3 0 0 0 1.68 3.867h.677Z" fill="#212121"/>
</svg>
